X: 10211
Q: "Grazioso"
M: 3/8
L: 1/16
K: G
!p!d2 |\
g2g2g2 | a2a2a2 | b2c'bag | Hd'4 (A>B) |\
.c'2(c'2b2) | .a2(a2g2) | a2 {b/}a>ga>b | g2 z>GB>^c |
{e/}d>^cd>GB>c | d2 z>d=c>B | {B/}A>^GA>cB>A | G4 G2 |\
g2g2g2 | a2a2a2 | b2c'bag | d'2 z2 d2 |\
g2g2g2 | (fe^de)c'a | g4 (b>a) | {a/}g>fg>ab>g |
{b/}a>^ga>bc'>a | {g/}f>ef>ga>f | g4 d2 | g2g2g2 |\
fe^dec'a | g4 b>a | g2 z2 f2 | g2 z2 f2 |\
g2g2g2 | g4 z2 |]


